evolvere-2-blue/mimetypes/64/application-vnd.oasis.opendocument.database.svg

<?xml version="1.0" encoding="UTF-8"?>
<svg width="64" height="64" version="1.1" xmlns="http://www.w3.org/2000/svg" xmlns:cc="http://creativecommons.org/ns#" xmlns:dc="http://purl.org/dc/elements/1.1/" xmlns:rdf="http://www.w3.org/1999/02/22-rdf-syntax-ns#" xmlns:xlink="http://www.w3.org/1999/xlink">
	<defs>
		<linearGradient id="linearGradient3972" x2="64" y1="15" y2="15" gradientTransform="translate(0,64)" gradientUnits="userSpaceOnUse">
			<stop stop-color="#3b0054" stop-opacity=".29128" offset="0"/>
			<stop stop-color="#ffe7ff" offset=".49866"/>
			<stop stop-color="#310046" stop-opacity=".27749" offset="1"/>
		</linearGradient>
		<linearGradient id="linearGradient3970" x1="20.399" x2="43.44" y1="92.5" y2="92.5" gradientTransform="translate(0,-47)" gradientUnits="userSpaceOnUse" xlink:href="#linearGradient3972"/>
		<linearGradient id="linearGradient3982" x1="20.738" x2="43.431" y1="92.5" y2="92.5" gradientTransform="translate(0,-64)" gradientUnits="userSpaceOnUse" xlink:href="#linearGradient3972"/>
		<radialGradient id="radialGradient870" cx="32.839" cy="15.581" r="10.211" gradientTransform="matrix(1.6372 0 0 1.3221 -21.765 -5.5997)" gradientUnits="userSpaceOnUse">
			<stop stop-color="#fff" stop-opacity=".45703" offset="0"/>
			<stop stop-color="#fff" stop-opacity="0" offset="1"/>
		</radialGradient>
		<radialGradient id="radialGradient878" cx="31.454" cy="22.498" r="32" gradientTransform="matrix(1 0 0 1.1639 0 .29664)" gradientUnits="userSpaceOnUse">
			<stop stop-color="#b542cf" offset="0"/>
			<stop stop-color="#702e7f" offset="1"/>
		</radialGradient>
		<radialGradient id="radialGradient848" cx="31.878" cy="36.165" r="3.3096" gradientTransform="matrix(-1.0323 0 0 -14.755 64.785 548.56)" gradientUnits="userSpaceOnUse">
			<stop stop-color="#fff" stop-opacity=".75907" offset="0"/>
			<stop stop-color="#fff" stop-opacity="0" offset="1"/>
		</radialGradient>
		<linearGradient id="linearGradient899" x1="-67.973" x2="-4.2211" y1="32" y2="32" gradientTransform="matrix(1 0 0 .9687 68.326 -1.1423)" gradientUnits="userSpaceOnUse">
			<stop stop-color="#991fb5" offset="0"/>
			<stop stop-color="#b064b1" offset=".26645"/>
			<stop stop-color="#e2ade4" offset=".37404"/>
			<stop stop-color="#fef1ff" offset=".4986"/>
			<stop stop-color="#e2ade4" offset=".61683"/>
			<stop stop-color="#b064b1" offset=".73209"/>
			<stop stop-color="#991fb5" offset="1"/>
		</linearGradient>
		<radialGradient id="radialGradient911" cx="32.145" cy="30.796" r="32" gradientTransform="matrix(1 -9.3555e-8 5.4425e-8 .34523 .046574 .58115)" gradientUnits="userSpaceOnUse">
			<stop stop-color="#fff" offset="0"/>
			<stop stop-color="#fff" offset=".48254"/>
			<stop stop-color="#f4d5f9" offset="1"/>
		</radialGradient>
		<linearGradient id="linearGradient921" x1="60.609" x2="60.609" y1="14.696" y2=".25901" gradientUnits="userSpaceOnUse">
			<stop stop-color="#e570ff" offset="0"/>
			<stop stop-color="#de4bff" offset="1"/>
		</linearGradient>
	</defs>
	<metadata>
		<rdf:RDF>
			<cc:Work rdf:about="">
				<dc:format>image/svg+xml</dc:format>
				<dc:type rdf:resource="http://purl.org/dc/dcmitype/StillImage"/>
				<dc:title/>
			</cc:Work>
		</rdf:RDF>
	</metadata>
	<path d="m2 0-2 1v55.5c0 4.1421 14.327 7.5 32 7.5s32-3.3579 32-7.5v-55.5l-2-1h-14.531v3.4375h-30.938v-3.4375z" fill="url(#linearGradient899)"/>
	<path d="m2 0-2 1v6.2402h64v-6.2402l-2-1h-14.531v3.4375h-30.938v-3.4375h-14.531z" fill="#78188e" style="font-variant-east_asian:normal"/>
	<path d="m2 0-2 1v4.4062c2.3053-2.3466 8.4229-4.2944 16.531-5.4062h-14.531zm45.469 0c8.1084 1.1119 14.226 3.0597 16.531 5.4062v-4.4062l-2-1h-14.531zm-47.469 9.5938v5.4062h16.531c-8.1111-1.1112-14.226-3.0595-16.531-5.4062zm64 0c-2.3055 2.3467-8.4201 4.295-16.531 5.4062h16.531v-5.4062z" fill="url(#linearGradient921)" style="font-variant-east_asian:normal"/>
	<path d="m32 0c-17.673 0-32 3.3579-32 7.5s14.327 7.5 32 7.5 32-3.3579 32-7.5-14.327-7.5-32-7.5z" fill="url(#radialGradient911)"/>
	<path d="m0 24.5v1.4375c0.090011 0.13446 0.17059 0.27951 0.28125 0.40625 0.48169 0.55171 1.1566 1.0326 2 1.5 1.6868 0.93472 4.0458 1.7524 6.9688 2.4375 5.8459 1.3701 13.882 2.2188 22.75 2.2188s16.904-0.84862 22.75-2.2188c2.9229-0.68506 5.2819-1.5028 6.9688-2.4375 0.84342-0.46736 1.5183-0.94829 2-1.5 0.11066-0.12674 0.19124-0.27179 0.28125-0.40625v-1.4375h-0.5c0 0.37365-0.1604 0.76274-0.53125 1.1875s-0.94288 0.85132-1.7188 1.2812c-1.5517 0.85986-3.8821 1.6716-6.75 2.3438-5.7358 1.3443-13.695 2.1875-22.5 2.1875s-16.764-0.84316-22.5-2.1875c-2.8679-0.67217-5.1983-1.4839-6.75-2.3438-0.77587-0.42993-1.3479-0.85649-1.7188-1.2812-0.37085-0.42476-0.53125-0.81385-0.53125-1.1875h-0.5z" color="#000000" fill="url(#linearGradient3982)" style="block-progression:tb;text-indent:0;text-transform:none"/>
	<path d="m0 41.5v1.4375c0.090011 0.13446 0.17059 0.27951 0.28125 0.40625 0.48169 0.55171 1.1566 1.0326 2 1.5 1.6868 0.93472 4.0458 1.7524 6.9688 2.4375 5.8459 1.3701 13.882 2.2188 22.75 2.2188s16.904-0.84862 22.75-2.2188c2.9229-0.68506 5.2819-1.5028 6.9688-2.4375 0.84342-0.46736 1.5183-0.94829 2-1.5 0.11066-0.12674 0.19124-0.27179 0.28125-0.40625v-1.4375h-0.5c0 0.37365-0.1604 0.76274-0.53125 1.1875s-0.94288 0.85132-1.7188 1.2812c-1.5517 0.85986-3.8821 1.6716-6.75 2.3438-5.7358 1.3443-13.695 2.1875-22.5 2.1875s-16.764-0.84316-22.5-2.1875c-2.8679-0.67217-5.1983-1.4839-6.75-2.3438-0.77587-0.42993-1.3479-0.85649-1.7188-1.2812-0.37085-0.42476-0.53125-0.81385-0.53125-1.1875h-0.5z" color="#000000" fill="url(#linearGradient3970)" style="block-progression:tb;text-indent:0;text-transform:none"/>
	<path d="m0 15v47l2 2h14.531v-49h-16.531zm47.469 0v49h14.531l2-2v-47h-16.531z" fill="url(#radialGradient878)" style="font-variant-east_asian:normal"/>
	<path d="m64 17-2-2 2-1z" fill="#b142ca"/>
	<path d="m0 17 2-2-2-1z" fill="#efa4ff"/>
	<path d="m0 31v1h16.531v-1h-16.531zm47.469 0v1h16.531v-1h-16.531zm-47.469 17v1h16.531v-1h-16.531zm47.469 0v1h16.531v-1h-16.531z" fill="#c722ff" fill-opacity=".25904"/>
	<path d="m28.568 14.955v49c1.1283 0.028216 2.2714 0.044922 3.4316 0.044922 1.0762 0 2.1386-0.01279 3.1875-0.03711v-49c-1.0489 0.024323-2.1113 0.03711-3.1875 0.03711-1.1602 0-2.3034-0.01671-3.4316-0.04492z" fill="url(#radialGradient848)" style="font-variant-east_asian:normal;paint-order:normal"/>
	<path d="m89.205 9.3078v1.9998h4.9995v-1.9998zm0 2.9997v1.9998h4.9995v-1.9998z" color="#000000" fill="#162f4d" fill-opacity=".35242"/>
	<ellipse cx="32" cy="15" rx="16.718" ry="13.5" fill="url(#radialGradient870)" style="paint-order:normal"/>
</svg>

<svg width="64" height="64" xmlns="http://www.w3.org/2000/svg" xmlns:xlink="http://www.w3.org/1999/xlink"><defs><linearGradient id="a" x2="64" y1="15" y2="15" gradientTransform="translate(0 64)" gradientUnits="userSpaceOnUse"><stop stop-color="#3b0054" stop-opacity=".291" offset="0"/><stop stop-color="#ffe7ff" offset=".499"/><stop stop-color="#310046" stop-opacity=".277" offset="1"/></linearGradient><linearGradient id="f" x1="20.399" x2="43.44" y1="92.5" y2="92.5" gradientTransform="translate(0 -47)" gradientUnits="userSpaceOnUse" xlink:href="#a"/><linearGradient id="e" x1="20.738" x2="43.431" y1="92.5" y2="92.5" gradientTransform="translate(0 -64)" gradientUnits="userSpaceOnUse" xlink:href="#a"/><linearGradient id="b" x1="-67.973" x2="-4.221" y1="32" y2="32" gradientTransform="matrix(1 0 0 .9687 68.326 -1.142)" gradientUnits="userSpaceOnUse"><stop stop-color="#991fb5" offset="0"/><stop stop-color="#b064b1" offset=".266"/><stop stop-color="#db92dd" offset=".374"/><stop stop-color="#fda2ff" offset=".499"/><stop stop-color="#db92dd" offset=".617"/><stop stop-color="#b064b1" offset=".732"/><stop stop-color="#991fb5" offset="1"/></linearGradient><linearGradient id="c" x1="60.609" x2="60.609" y1="14.696" y2=".259" gradientUnits="userSpaceOnUse"><stop stop-color="#e570ff" offset="0"/><stop stop-color="#de4bff" offset="1"/></linearGradient><radialGradient id="i" cx="32.839" cy="15.581" r="10.211" gradientTransform="matrix(1.6372 0 0 1.3221 -21.765 -5.6)" gradientUnits="userSpaceOnUse"><stop stop-color="#fff" stop-opacity=".457" offset="0"/><stop stop-color="#fff" stop-opacity="0" offset="1"/></radialGradient><radialGradient id="g" cx="31.454" cy="22.498" r="32" gradientTransform="matrix(1 0 0 1.1639 0 .297)" gradientUnits="userSpaceOnUse"><stop stop-color="#b542cf" offset="0"/><stop stop-color="#702e7f" offset="1"/></radialGradient><radialGradient id="h" cx="31.878" cy="36.165" r="3.31" gradientTransform="matrix(-1.0323 0 0 -14.755 64.785 548.56)" gradientUnits="userSpaceOnUse"><stop stop-color="#fff" stop-opacity=".24" offset="0"/><stop stop-color="#fff" stop-opacity="0" offset="1"/></radialGradient><radialGradient id="d" cx="32.145" cy="30.796" r="32" gradientTransform="matrix(1 0 0 .34523 .047 .581)" gradientUnits="userSpaceOnUse"><stop stop-color="#fff" offset="0"/><stop stop-color="#fff" offset=".483"/><stop stop-color="#f4d5f9" offset="1"/></radialGradient></defs><path d="M2 0 0 1v55.5C0 60.642 14.327 64 32 64s32-3.358 32-7.5V1l-2-1H47.469v3.438H16.531V0z" fill="url(#b)"/><path d="M2 0 0 1v6.24h64V1l-2-1H47.469v3.438H16.531V0H2z" fill="#78188e" style="font-variant-east_asian:normal"/><path d="M2 0 0 1v4.406C2.305 3.06 8.423 1.112 16.531 0H2zm45.469 0C55.577 1.112 61.695 3.06 64 5.406V1l-2-1H47.469zM0 9.594V15h16.531C8.42 13.889 2.305 11.94 0 9.594zm64 0C61.695 11.94 55.58 13.889 47.469 15H64V9.594z" fill="url(#c)" style="font-variant-east_asian:normal"/><path d="M32 0C14.327 0 0 3.358 0 7.5S14.327 15 32 15s32-3.358 32-7.5S49.673 0 32 0z" fill="url(#d)"/><path d="M0 24.5v1.438c.09.134.17.279.281.406.482.551 1.157 1.032 2 1.5 1.687.934 4.046 1.752 6.969 2.437 5.846 1.37 13.882 2.22 22.75 2.22s16.904-.85 22.75-2.22c2.923-.685 5.282-1.503 6.969-2.437.843-.468 1.518-.949 2-1.5.11-.127.191-.272.281-.407V24.5h-.5c0 .374-.16.763-.531 1.188s-.943.85-1.719 1.28c-1.552.86-3.882 1.672-6.75 2.344C48.764 30.657 40.805 31.5 32 31.5s-16.764-.843-22.5-2.188c-2.868-.672-5.198-1.483-6.75-2.343-.776-.43-1.348-.857-1.719-1.282C.661 25.264.5 24.875.5 24.5H0z" color="#000" fill="url(#e)" style="block-progression:tb;text-indent:0;text-transform:none"/><path d="M0 41.5v1.438c.09.134.17.279.281.406.482.551 1.157 1.032 2 1.5 1.687.934 4.046 1.752 6.969 2.437 5.846 1.37 13.882 2.22 22.75 2.22s16.904-.85 22.75-2.22c2.923-.685 5.282-1.503 6.969-2.437.843-.468 1.518-.949 2-1.5.11-.127.191-.272.281-.407V41.5h-.5c0 .374-.16.763-.531 1.188s-.943.85-1.719 1.28c-1.552.86-3.882 1.672-6.75 2.344C48.764 47.657 40.805 48.5 32 48.5s-16.764-.843-22.5-2.188c-2.868-.672-5.198-1.483-6.75-2.343-.776-.43-1.348-.857-1.719-1.282C.661 42.264.5 41.874.5 41.5H0z" color="#000" fill="url(#f)" style="block-progression:tb;text-indent:0;text-transform:none"/><path d="M0 15v47l2 2h14.531V15H0zm47.469 0v49H62l2-2V15H47.469z" fill="url(#g)" style="font-variant-east_asian:normal"/><path d="m64 17-2-2 2-1z" fill="#b142ca"/><path d="m0 17 2-2-2-1z" fill="#efa4ff"/><path d="M0 31v1h16.531v-1H0zm47.469 0v1H64v-1H47.469zM0 48v1h16.531v-1H0zm47.469 0v1H64v-1H47.469z" fill="#c722ff" fill-opacity=".259"/><path d="M28.568 14.955v49a137.121 137.121 0 0 0 6.62.008v-49a137.47 137.47 0 0 1-6.62-.008z" fill="url(#h)" style="font-variant-east_asian:normal"/><path d="M89.205 9.308v2h5v-2zm0 3v2h5v-2z" color="#000" fill="#162f4d" fill-opacity=".352"/><ellipse cx="32" cy="15" rx="16.718" ry="13.5" fill="url(#i)"/></svg>
